src/images/close.svg

<svg width="40" height="40" viewBox="0 0 40 40" fill="none" xmlns="http://www.w3.org/2000/svg">
<path d="M22.3566 20L31.1781 28.8215L28.8211 31.1785L18.3497 20.7071C17.9592 20.3166 17.9592 19.6834 18.3497 19.2929L28.8211 8.82147L31.1781 11.1785L22.3566 20Z" fill="white"/>
<path d="M18.1307 20L9.30919 28.8215L11.6662 31.1785L22.1376 20.7071C22.5281 20.3166 22.5281 19.6834 22.1376 19.2929L11.6662 8.82147L9.30919 11.1785L18.1307 20Z" fill="white"/>
</svg>

<svg width="40" height="40" fill="none" xmlns="http://www.w3.org/2000/svg"><path d="M22.357 20l8.821 8.822-2.357 2.357L18.35 20.706a1 1 0 010-1.414L28.82 8.82l2.357 2.357L22.357 20z" fill="#fff"/><path d="M18.13 20l-8.82 8.822 2.356 2.357 10.472-10.472a1 1 0 000-1.414L11.666 8.82 9.31 11.178 18.131 20z" fill="#fff"/></svg>
